X: 21055
T: MANILLA SETT (tune 5)
C:
%R: jig
B: Elias Howe "The Musician's Companion" 1843 p.105 #2
S: http://imslp.org/wiki/The_Musician's_Companion_(Howe,_Elias)
Z: 2015 John Chambers <jc:trillian.mit.edu>
N: All 3 strains end with "D.C.". There is no fermata, which might be at the end of the 1st strain as usual.
M: 6/8
L: 1/8
K: Bb
% - - - - - - - - - - - - - - - - - - - - - - - - - - - - -
V: 1 name="5"
f |\
(fB)B (ba)g | fBB BAB | cFF edc | ^cdB B3 |\
(fB)B bag | fBB BAB | cFF edc | B3 "^D.C."B2 |]
B |\
(.=B2.c) (.d2.c) | g2f b2B | d2c e2A | B2d F2B |\
=B2c d2c | g2f b2B | g2f e2c | B3- "^D.C."B2 |]
B2F D2F | A3 B2B | c2F c2F | d3 d2d |\
f2e c2d | c3 cde | d2c cBA | B3- "^D.C."B2 |]
% - - - - - - - - - - Dance description - - - - - - - - - -
%%begintext align
%% All chassa across,
%% all balance,
%% all chain,
%% all promenade.
%%endtext
% - - - - - - - - - - - - - - - - - - - - - - - - - - - - -
%%sep 1 1 300

%%sep 1 1 500

